packages/ffe-icons/icons/filled/md/share_reviews.svg

<svg xmlns="http://www.w3.org/2000/svg" height="24" viewBox="0 -960 960 960" width="24"><path d="M580-370.001q29.154 0 49.576-20.423 20.423-20.422 20.423-49.576t-20.423-49.576Q609.154-509.999 580-509.999q-13.846 0-26 5.307-12.154 5.308-22 13.923l-122.385-61.692q.384-2 .384-3.577v-8.116q0-1.769-.384-3.769l122.001-61.308q9.846 8.615 22.192 13.923 12.346 5.307 26.192 5.307 29.154 0 49.576-20.423 20.423-20.422 20.423-49.576t-20.423-49.576Q609.154-749.999 580-749.999t-49.576 20.423Q510.001-709.154 510.001-680v3.962q0 1.577.384 3.961l-122.001 61.308q-9.846-8.615-22.192-13.923-12.346-5.307-26.192-5.307-29.154 0-49.576 20.423-20.423 20.422-20.423 49.576t20.423 49.576q20.422 20.423 49.576 20.423 13.846 0 26.192-5.5t22.192-14.115l122.001 61.693q-.384 2.384-.384 3.961V-440q0 29.154 20.423 49.576 20.422 20.423 49.576 20.423Zm-338.461 110-80.076 80.076q-17.077 17.076-39.269 7.73-22.193-9.346-22.193-33.653v-581.843q0-30.308 21-51.308t51.308-21h615.382q30.308 0 51.308 21t21 51.308v455.382q0 30.308-21 51.308t-51.308 21H241.539Z"/></svg>

<svg xmlns="http://www.w3.org/2000/svg" height="24" viewBox="0 -960 960 960" width="24"><path d="M580-370q29.15 0 49.58-20.42Q650-410.85 650-440t-20.42-49.58Q609.15-510 580-510q-13.85 0-26 5.31t-22 13.92l-122.39-61.69q.39-2 .39-3.58v-8.11q0-1.77-.39-3.77l122.01-61.31q9.84 8.61 22.19 13.92Q566.15-610 580-610q29.15 0 49.58-20.42Q650-650.85 650-680t-20.42-49.58Q609.15-750 580-750t-49.58 20.42Q510-709.15 510-680v3.96q0 1.58.39 3.96l-122.01 61.31q-9.84-8.61-22.19-13.92Q353.85-630 340-630q-29.15 0-49.58 20.42Q270-589.15 270-560t20.42 49.58Q310.85-490 340-490q13.85 0 26.19-5.5 12.35-5.5 22.19-14.12l122.01 61.7q-.39 2.38-.39 3.96v3.96q0 29.15 20.42 49.58Q550.85-370 580-370ZM241.54-260l-80.08 80.07q-17.07 17.08-39.27 7.74Q100-181.54 100-205.85v-581.84Q100-818 121-839q21-21 51.31-21h615.38Q818-860 839-839q21 21 21 51.31v455.38Q860-302 839-281q-21 21-51.31 21H241.54Z"/></svg>
